X: 1273
T: An Emigrant's Daughter
R: waltz
M: 3/4
K: Aminor
E2|A2 B3 A|G2 A2 cd|e3 d c2|B2 G2 cB|
A4 BA|G E3 EE|E2 A2 G2|A4 E2|
A3 B A2|G2 A2 cd|e3 d c2|B2 G2 cB|
A2 A2 BA|G2 E2 E2|E2 A2 G2|A4 cd|
e2 ed c2|d2 d2 ed|c2 c2 dc|B4 cB|A2 A2 BA|G E4 E|
E2 A2 G2|A4 cd|e3 d c2|d4 ed|
c2 c2 dc|B4 cB|A2 A2 BA|G4 EE|E2 A2 G2|A6-|A6|

